;FLAVOR:Marlin
;TIME:1973
;Filament used: 1.46423m, 0m
;Layer height: 0.4
;MINX:172.211
;MINY:112.211
;MINZ:0.2
;MAXX:247.789
;MAXY:187.789
;MAXZ:5.8
;Generated with StratosEngine 1.5.2
T0
M82 ;absolute extrusion mode
;Machine Model: Sigma D25 
;Materials used: T0 PLA  
;Extruders used: T0 0.4  
M141 S40 	;Set chamber temperature 
M140 S60 	;Heat build surface
M104 T0 S215	;Heat extruder 0
M190 S60 	;Wait until bed temperature reached 
M109 T0 S215	;Heat extruder 0 and wait
G21 		;metric values 
G90 		;absolute positioning 
M204 S2500 	;set default acceleration 
M205 X12.5 Y12.5 ;set default jerk 
M107 		;start with the fan off 
G28 X0 Y0 	;move X/Y to min endstops 
G28 Z0 		;move Z to min endstops 
G1 Z5 F200 	;safety Z axis movement

T0
G92 E0 		;set zero the extruded length 
G1 E10 F30
G92 E0 
G4 S2 		;stabilize hotend 
G1 E-0.5 F1000 
G92 E0

G4 P1
G4 P2
G4 P3

M141 S40
G92 E0
;LAYER_COUNT:15
;LAYER:0
M107
M204 S456
M205 X9.38 Y9.38
G1 F600 Z1
G0 F6000 X210.407 Y187.789 Z1
M204 S1425
;TYPE:SKIRT
G1 F600 Z0.2
G1 F1050 E0
G1 F1800 X209.593 Y187.789 E0.01021
G1 X206.458 Y187.625 E0.04958
G1 X205.644 Y187.54 E0.05984
G1 X202.541 Y187.048 E0.09924
G1 X201.744 Y186.878 E0.10946
G1 X198.712 Y186.066 E0.14882
G1 X197.932 Y185.813 E0.1591
G1 X194.999 Y184.686 E0.19851
G1 X194.257 Y184.356 E0.20869
G1 X191.459 Y182.931 E0.24807
G1 X190.751 Y182.522 E0.25832
G1 X188.119 Y180.813 E0.29767
G1 X187.458 Y180.332 E0.30792
G1 X185.017 Y178.355 E0.34732
G1 X184.409 Y177.808 E0.35757
G1 X182.19 Y175.588 E0.39693
G1 X181.647 Y174.985 E0.40711
G1 X179.669 Y172.544 E0.44651
G1 X179.187 Y171.88 E0.4568
G1 X177.477 Y169.246 E0.49618
G1 X177.068 Y168.539 E0.50642
G1 X175.643 Y165.741 E0.5458
G1 X175.313 Y164.998 E0.556
G1 X174.187 Y162.067 E0.59537
G1 X173.934 Y161.288 E0.60564
G1 X173.122 Y158.256 E0.645
G1 X172.952 Y157.459 E0.65522
G1 X172.46 Y154.356 E0.69462
G1 X172.375 Y153.543 E0.70487
G1 X172.211 Y150.409 E0.74423
G1 X172.211 Y149.594 E0.75445
G1 X172.375 Y146.458 E0.79383
G1 X172.46 Y145.644 E0.80409
G1 X172.952 Y142.541 E0.84349
G1 X173.122 Y141.744 E0.85371
G1 X173.934 Y138.712 E0.89307
G1 X174.187 Y137.933 E0.90334
G1 X175.313 Y135.002 E0.94272
G1 X175.643 Y134.259 E0.95291
G1 X177.068 Y131.461 E0.99229
G1 X177.477 Y130.754 E1.00253
G1 X179.187 Y128.12 E1.04192
G1 X179.668 Y127.458 E1.05218
G1 X181.645 Y125.017 E1.09157
G1 X182.192 Y124.409 E1.10182
G1 X184.412 Y122.19 E1.14119
G1 X185.015 Y121.647 E1.15136
G1 X187.456 Y119.669 E1.19076
G1 X188.119 Y119.187 E1.20104
G1 X190.751 Y117.478 E1.2404
G1 X191.459 Y117.069 E1.25065
G1 X194.257 Y115.644 E1.29003
G1 X194.999 Y115.314 E1.30021
G1 X197.932 Y114.187 E1.33961
G1 X198.712 Y113.934 E1.3499
G1 X201.744 Y113.122 E1.38926
G1 X202.541 Y112.952 E1.39948
G1 X205.644 Y112.46 E1.43888
G1 X206.458 Y112.375 E1.44914
G1 X209.593 Y112.211 E1.48851
G1 X210.407 Y112.211 E1.49871
G1 X213.542 Y112.375 E1.53808
G1 X214.356 Y112.46 E1.54835
G1 X217.459 Y112.952 E1.58774
G1 X218.256 Y113.122 E1.59796
G1 X221.288 Y113.934 E1.63733
G1 X222.068 Y114.187 E1.64761
G1 X225.001 Y115.314 E1.68701
G1 X225.743 Y115.645 E1.6972
G1 X228.539 Y117.069 E1.73655
G1 X229.246 Y117.477 E1.74679
G1 X231.88 Y119.187 E1.78617
G1 X232.542 Y119.668 E1.79643
G1 X234.983 Y121.645 E1.83582
G1 X235.591 Y122.192 E1.84608
G1 X237.81 Y124.412 E1.88544
G1 X238.353 Y125.015 E1.89562
G1 X240.331 Y127.456 E1.93502
G1 X240.813 Y128.119 E1.94529
G1 X242.522 Y130.751 E1.98465
G1 X242.931 Y131.459 E1.9949
G1 X244.356 Y134.257 E2.03428
G1 X244.686 Y134.999 E2.04446
G1 X245.813 Y137.932 E2.08386
G1 X246.066 Y138.712 E2.09415
G1 X246.878 Y141.744 E2.13351
G1 X247.048 Y142.54 E2.14372
G1 X247.54 Y145.641 E2.18309
G1 X247.625 Y146.456 E2.19337
G1 X247.789 Y149.592 E2.23275
G1 X247.789 Y150.406 E2.24296
G1 X247.625 Y153.542 E2.28234
G1 X247.54 Y154.356 E2.2926
G1 X247.048 Y157.459 E2.332
G1 X246.878 Y158.256 E2.34222
G1 X246.066 Y161.288 E2.38158
G1 X245.813 Y162.067 E2.39185
G1 X244.687 Y164.998 E2.43123
G1 X244.357 Y165.741 E2.44142
G1 X242.932 Y168.539 E2.4808
G1 X242.523 Y169.246 E2.49104
G1 X240.813 Y171.88 E2.53042
G1 X240.332 Y172.542 E2.54068
G1 X238.355 Y174.983 E2.58008
G1 X237.808 Y175.591 E2.59033
G1 X235.588 Y177.81 E2.62969
G1 X234.985 Y178.353 E2.63987
G1 X232.544 Y180.331 E2.67927
G1 X231.881 Y180.813 E2.68955
G1 X229.249 Y182.522 E2.7289
G1 X228.541 Y182.931 E2.73916
G1 X225.743 Y184.356 E2.77853
G1 X225.001 Y184.686 E2.78872
G1 X222.068 Y185.813 E2.82812
G1 X221.288 Y186.066 E2.8384
G1 X218.256 Y186.878 E2.87776
G1 X217.459 Y187.048 E2.88798
G1 X214.356 Y187.54 E2.92738
G1 X213.542 Y187.625 E2.93765
G1 X210.407 Y187.789 E2.97701
M204 S456
G0 F6000 X210.387 Y187.39
M204 S1425
G1 F1800 X209.613 Y187.39 E2.98672
G1 X206.478 Y187.226 E3.02609
G1 X205.706 Y187.145 E3.03582
G1 X202.603 Y186.653 E3.07522
G1 X201.848 Y186.492 E3.0849
G1 X198.816 Y185.68 E3.12426
G1 X198.076 Y185.44 E3.13402
G1 X195.143 Y184.313 E3.17342
G1 X194.439 Y183.999 E3.18309
G1 X191.641 Y182.574 E3.22247
G1 X190.969 Y182.186 E3.2322
G1 X188.337 Y180.477 E3.27155
G1 X187.71 Y180.022 E3.28127
G1 X185.269 Y178.045 E3.32066
G1 X184.692 Y177.525 E3.3304
G1 X182.473 Y175.305 E3.36976
G1 X181.958 Y174.733 E3.37941
G1 X179.98 Y172.292 E3.41881
G1 X179.522 Y171.662 E3.42858
G1 X177.812 Y169.028 E3.46796
G1 X177.425 Y168.357 E3.47767
G1 X176 Y165.559 E3.51705
G1 X175.686 Y164.855 E3.52672
G1 X174.56 Y161.924 E3.56609
G1 X174.32 Y161.184 E3.57585
G1 X173.508 Y158.152 E3.61521
G1 X173.347 Y157.397 E3.62489
G1 X172.855 Y154.294 E3.66429
G1 X172.774 Y153.522 E3.67402
G1 X172.61 Y150.388 E3.71338
G1 X172.61 Y149.615 E3.72307
G1 X172.774 Y146.479 E3.76245
G1 X172.855 Y145.706 E3.7722
G1 X173.347 Y142.603 E3.8116
G1 X173.508 Y141.848 E3.82128
G1 X174.32 Y138.816 E3.86064
G1 X174.56 Y138.076 E3.8704
G1 X175.686 Y135.145 E3.90977
G1 X176 Y134.441 E3.91944
G1 X177.425 Y131.643 E3.95882
G1 X177.812 Y130.972 E3.96853
G1 X179.522 Y128.338 E4.00791
G1 X179.978 Y127.71 E4.01764
G1 X181.955 Y125.269 E4.05704
G1 X182.475 Y124.692 E4.06678
G1 X184.695 Y122.473 E4.10614
G1 X185.267 Y121.958 E4.11579
G1 X187.708 Y119.98 E4.15519
G1 X188.337 Y119.523 E4.16494
G1 X190.969 Y117.814 E4.20429
G1 X191.641 Y117.426 E4.21403
G1 X194.439 Y116.001 E4.2534
G1 X195.143 Y115.687 E4.26307
G1 X198.076 Y114.56 E4.30247
G1 X198.816 Y114.32 E4.31223
G1 X201.848 Y113.508 E4.35159
G1 X202.603 Y113.347 E4.36127
G1 X205.706 Y112.855 E4.40067
G1 X206.478 Y112.774 E4.4104
G1 X209.613 Y112.61 E4.44977
G1 X210.387 Y112.61 E4.45948
G1 X213.522 Y112.774 E4.49885
G1 X214.294 Y112.855 E4.50858
G1 X217.397 Y113.347 E4.54798
G1 X218.152 Y113.508 E4.55766
G1 X221.184 Y114.32 E4.59702
G1 X221.924 Y114.56 E4.60678
G1 X224.857 Y115.687 E4.64618
G1 X225.561 Y116.001 E4.65585
G1 X228.357 Y117.425 E4.6952
G1 X229.028 Y117.812 E4.70491
G1 X231.662 Y119.522 E4.74429
G1 X232.29 Y119.978 E4.75402
G1 X234.731 Y121.955 E4.79341
G1 X235.308 Y122.475 E4.80316
G1 X237.527 Y124.695 E4.84252
G1 X238.042 Y125.267 E4.85217
G1 X240.02 Y127.708 E4.89157
G1 X240.477 Y128.337 E4.90132
G1 X242.186 Y130.969 E4.94067
G1 X242.574 Y131.641 E4.9504
G1 X243.999 Y134.439 E4.98978
G1 X244.313 Y135.143 E4.99945
G1 X245.44 Y138.076 E5.03885
G1 X245.68 Y138.816 E5.04861
G1 X246.492 Y141.848 E5.08797
G1 X246.653 Y142.602 E5.09764
G1 X247.145 Y145.703 E5.13701
G1 X247.226 Y146.477 E5.14677
G1 X247.39 Y149.613 E5.18615
G1 X247.39 Y150.385 E5.19583
G1 X247.226 Y153.521 E5.23521
G1 X247.145 Y154.294 E5.24496
G1 X246.653 Y157.397 E5.28436
G1 X246.492 Y158.152 E5.29404
G1 X245.68 Y161.184 E5.3334
G1 X245.44 Y161.924 E5.34316
G1 X244.314 Y164.855 E5.38253
G1 X244 Y165.559 E5.3922
G1 X242.575 Y168.357 E5.43157
G1 X242.188 Y169.028 E5.44129
G1 X240.478 Y171.662 E5.48067
G1 X240.022 Y172.29 E5.4904
G1 X238.045 Y174.731 E5.52979
G1 X237.525 Y175.308 E5.53953
G1 X235.305 Y177.527 E5.5789
G1 X234.733 Y178.042 E5.58855
G1 X232.292 Y180.02 E5.62795
G1 X231.663 Y180.477 E5.6377
G1 X229.031 Y182.186 E5.67705
G1 X228.359 Y182.574 E5.68678
G1 X225.561 Y183.999 E5.72616
G1 X224.857 Y184.313 E5.73583
G1 X221.924 Y185.44 E5.77523
G1 X221.184 Y185.68 E5.78498
G1 X218.152 Y186.492 E5.82435
G1 X217.397 Y186.653 E5.83403
G1 X214.294 Y187.145 E5.87343
G1 X213.522 Y187.226 E5.88316
G1 X210.387 Y187.39 E5.92253
M204 S456
G0 F6000 X210.366 Y186.99
M204 S1425
G1 F1800 X209.634 Y186.99 E5.93171
G1 X206.499 Y186.826 E5.97108
G1 X205.769 Y186.75 E5.98028
G1 X202.666 Y186.258 E6.01968
G1 X201.951 Y186.106 E6.02885
G1 X198.919 Y185.294 E6.06821
G1 X198.219 Y185.066 E6.07744
G1 X195.286 Y183.939 E6.11684
G1 X194.62 Y183.643 E6.12598
G1 X191.822 Y182.218 E6.16536
G1 X191.187 Y181.851 E6.17456
G1 X188.555 Y180.142 E6.21391
G1 X187.961 Y179.711 E6.22311
G1 X185.52 Y177.734 E6.26251
G1 X184.975 Y177.243 E6.2717
G1 X182.756 Y175.023 E6.31107
G1 X182.268 Y174.481 E6.32021
G1 X180.29 Y172.04 E6.35961
G1 X179.858 Y171.445 E6.36883
G1 X178.148 Y168.811 E6.40821
G1 X177.781 Y168.176 E6.41741
G1 X176.356 Y165.378 E6.45679
G1 X176.06 Y164.711 E6.46594
G1 X174.934 Y161.78 E6.50531
G1 X174.706 Y161.081 E6.51453
G1 X173.894 Y158.049 E6.5539
G1 X173.742 Y157.334 E6.56306
G1 X173.25 Y154.231 E6.60246
G1 X173.174 Y153.501 E6.61167
G1 X173.01 Y150.367 E6.65102
G1 X173.01 Y149.635 E6.6602
G1 X173.174 Y146.499 E6.69958
G1 X173.25 Y145.769 E6.70879
G1 X173.742 Y142.666 E6.74818
G1 X173.894 Y141.951 E6.75735
G1 X174.706 Y138.919 E6.79671
G1 X174.934 Y138.22 E6.80593
G1 X176.06 Y135.289 E6.84531
G1 X176.356 Y134.622 E6.85446
G1 X177.781 Y131.824 E6.89384
G1 X178.148 Y131.189 E6.90303
G1 X179.858 Y128.555 E6.94242
G1 X180.289 Y127.961 E6.95162
G1 X182.266 Y125.52 E6.99101
G1 X182.757 Y124.975 E7.00021
G1 X184.977 Y122.756 E7.03957
G1 X185.519 Y122.268 E7.04872
G1 X187.96 Y120.29 E7.08812
G1 X188.555 Y119.858 E7.09734
G1 X191.187 Y118.149 E7.13669
G1 X191.822 Y117.782 E7.14589
G1 X194.62 Y116.357 E7.18527
G1 X195.286 Y116.061 E7.1944
G1 X198.219 Y114.934 E7.23381
G1 X198.919 Y114.706 E7.24304
G1 X201.951 Y113.894 E7.2824
G1 X202.666 Y113.742 E7.29157
G1 X205.769 Y113.25 E7.33097
G1 X206.499 Y113.174 E7.34017
G1 X209.634 Y113.01 E7.37954
G1 X210.366 Y113.01 E7.38872
G1 X213.501 Y113.174 E7.42809
G1 X214.231 Y113.25 E7.43729
G1 X217.334 Y113.742 E7.47669
G1 X218.049 Y113.894 E7.48586
G1 X221.081 Y114.706 E7.52522
G1 X221.781 Y114.934 E7.53445
G1 X224.714 Y116.061 E7.57385
G1 X225.38 Y116.357 E7.58299
G1 X228.176 Y117.781 E7.62234
G1 X228.811 Y118.148 E7.63154
G1 X231.445 Y119.858 E7.67092
G1 X232.039 Y120.289 E7.68012
G1 X234.48 Y122.266 E7.71952
G1 X235.025 Y122.757 E7.72871
G1 X237.244 Y124.977 E7.76808
G1 X237.732 Y125.519 E7.77722
G1 X239.71 Y127.96 E7.81662
G1 X240.142 Y128.555 E7.82584
G1 X241.851 Y131.187 E7.8652
G1 X242.218 Y131.822 E7.87439
G1 X243.643 Y134.62 E7.91377
G1 X243.939 Y135.286 E7.92291
G1 X245.066 Y138.219 E7.96231
G1 X245.294 Y138.919 E7.97155
G1 X246.106 Y141.951 E8.01091
G1 X246.258 Y142.665 E8.02006
G1 X246.75 Y145.766 E8.05944
G1 X246.826 Y146.497 E8.06865
G1 X246.99 Y149.633 E8.10803
G1 X246.99 Y150.365 E8.11721
G1 X246.826 Y153.501 E8.15659
G1 X246.75 Y154.231 E8.1658
G1 X246.258 Y157.334 E8.2052
G1 X246.106 Y158.049 E8.21436
G1 X245.294 Y161.081 E8.25372
G1 X245.066 Y161.78 E8.26294
G1 X243.94 Y164.711 E8.30232
G1 X243.644 Y165.378 E8.31147
G1 X242.219 Y168.176 E8.35085
G1 X241.852 Y168.811 E8.36004
G1 X240.142 Y171.445 E8.39943
G1 X239.711 Y172.039 E8.40863
G1 X237.734 Y174.48 E8.44802
G1 X237.243 Y175.025 E8.45722
G1 X235.023 Y177.244 E8.49658
G1 X234.481 Y177.732 E8.50573
G1 X232.04 Y179.71 E8.54513
G1 X231.445 Y180.142 E8.55435
G1 X228.813 Y181.851 E8.5937
G1 X228.178 Y182.218 E8.6029
G1 X225.38 Y183.643 E8.64228
G1 X224.714 Y183.939 E8.65142
G1 X221.781 Y185.066 E8.69082
G1 X221.081 Y185.294 E8.70005
G1 X218.049 Y186.106 E8.73941
G1 X217.334 Y186.258 E8.74858
G1 X214.231 Y186.75 E8.78798
G1 X213.501 Y186.826 E8.79718
G1 X210.366 Y186.99 E8.83655
M204 S456
G0 F6000 X210.345 Y186.591
M204 S1425
G1 F1800 X209.655 Y186.591 E8.8452
G1 X206.52 Y186.427 E8.88457
G1 X205.831 Y186.355 E8.89326
G1 X202.728 Y185.863 E8.93266
G1 X202.055 Y185.719 E8.94129
G1 X199.023 Y184.907 E8.98065
G1 X198.363 Y184.693 E8.98935
G1 X195.43 Y183.566 E9.02875
G1 X194.802 Y183.286 E9.03738
G1 X192.004 Y181.861 E9.07675
G1 X191.405 Y181.515 E9.08543
G1 X188.773 Y179.806 E9.12478
G1 X188.213 Y179.4 E9.13346
G1 X185.772 Y177.423 E9.17285
G1 X185.258 Y176.96 E9.18152
G1 X183.039 Y174.74 E9.22089
G1 X182.579 Y174.229 E9.22951
G1 X180.601 Y171.788 E9.26891
G1 X180.193 Y171.227 E9.27761
G1 X178.483 Y168.593 E9.31699
G1 X178.138 Y167.994 E9.32566
G1 X176.713 Y165.196 E9.36503
G1 X176.433 Y164.568 E9.37365
G1 X175.307 Y161.637 E9.41303
G1 X175.093 Y160.977 E9.42173
G1 X174.281 Y157.945 E9.46109
G1 X174.137 Y157.272 E9.46972
G1 X173.645 Y154.169 E9.50912
G1 X173.573 Y153.48 E9.51781
G1 X173.409 Y150.346 E9.55717
G1 X173.409 Y149.656 E9.56582
G1 X173.573 Y146.52 E9.6052
G1 X173.645 Y145.831 E9.61389
G1 X174.137 Y142.728 E9.65328
G1 X174.281 Y142.055 E9.66192
G1 X175.093 Y139.023 E9.70128
G1 X175.307 Y138.363 E9.70998
G1 X176.433 Y135.432 E9.74935
G1 X176.713 Y134.804 E9.75798
G1 X178.138 Y132.006 E9.79735
G1 X178.483 Y131.407 E9.80602
G1 X180.193 Y128.773 E9.8454
G1 X180.6 Y128.213 E9.85408
G1 X182.577 Y125.772 E9.89348
G1 X183.04 Y125.258 E9.90215
G1 X185.26 Y123.039 E9.94151
G1 X185.771 Y122.579 E9.95014
G1 X188.212 Y120.601 E9.98953
G1 X188.773 Y120.194 E9.99823
G1 X191.405 Y118.485 E10.03758
G1 X192.004 Y118.139 E10.04625
G1 X194.802 Y116.714 E10.08563
G1 X195.43 Y116.434 E10.09425
G1 X198.363 Y115.307 E10.13366
G1 X199.023 Y115.093 E10.14236
G1 X202.055 Y114.281 E10.18172
G1 X202.728 Y114.137 E10.19035
G1 X205.831 Y113.645 E10.22975
G1 X206.52 Y113.573 E10.23844
G1 X209.655 Y113.409 E10.2778
G1 X210.345 Y113.409 E10.28646
G1 X213.48 Y113.573 E10.32583
G1 X214.169 Y113.645 E10.33451
G1 X217.272 Y114.137 E10.37391
G1 X217.945 Y114.281 E10.38254
G1 X220.977 Y115.093 E10.4219
G1 X221.637 Y115.307 E10.43061
G1 X224.57 Y116.434 E10.47001
G1 X225.198 Y116.714 E10.47863
G1 X227.994 Y118.138 E10.51798
G1 X228.593 Y118.483 E10.52665
G1 X231.227 Y120.193 E10.56603
G1 X231.787 Y120.6 E10.57471
G1 X234.228 Y122.577 E10.6141
G1 X234.742 Y123.04 E10.62278
G1 X236.961 Y125.26 E10.66214
G1 X237.421 Y125.771 E10.67076
G1 X239.399 Y128.212 E10.71016
G1 X239.806 Y128.773 E10.71885
G1 X241.515 Y131.405 E10.75821
G1 X241.861 Y132.004 E10.76688
G1 X243.286 Y134.802 E10.80626
G1 X243.566 Y135.43 E10.81488
G1 X244.693 Y138.363 E10.85428
G1 X244.907 Y139.023 E10.86298
G1 X245.719 Y142.055 E10.90235
G1 X245.862 Y142.728 E10.91097
G1 X246.354 Y145.829 E10.95035
G1 X246.427 Y146.518 E10.95904
G1 X246.591 Y149.654 E10.99842
G1 X246.591 Y150.344 E11.00707
G1 X246.427 Y153.48 E11.04645
G1 X246.355 Y154.169 E11.05514
G1 X245.863 Y157.272 E11.09454
G1 X245.719 Y157.945 E11.10317
G1 X244.907 Y160.977 E11.14253
G1 X244.693 Y161.637 E11.15123
G1 X243.567 Y164.568 E11.19061
G1 X243.287 Y165.196 E11.19923
G1 X241.862 Y167.994 E11.2386
G1 X241.517 Y168.593 E11.24727
G1 X239.807 Y171.227 E11.28666
G1 X239.4 Y171.787 E11.29534
G1 X237.423 Y174.228 E11.33473
G1 X236.96 Y174.742 E11.3434
G1 X234.74 Y176.961 E11.38277
G1 X234.229 Y177.421 E11.39139
G1 X231.788 Y179.399 E11.43079
G1 X231.227 Y179.806 E11.43948
G1 X228.595 Y181.515 E11.47883
G1 X227.996 Y181.861 E11.48751
G1 X225.198 Y183.286 E11.52688
G1 X224.57 Y183.566 E11.53551
G1 X221.637 Y184.693 E11.57491
G1 X220.977 Y184.907 E11.58361
G1 X217.945 Y185.719 E11.62297
G1 X217.272 Y185.863 E11.6316
G1 X214.169 Y186.355 E11.671
G1 X213.48 Y186.427 E11.67969
G1 X210.345 Y186.591 E11.71906
M204 S456
G0 F6000 X210.324 Y186.192
M204 S1425
G1 F1800 X209.676 Y186.192 E11.72718
G1 X206.541 Y186.028 E11.76655
G1 X205.894 Y185.96 E11.77471
G1 X202.791 Y185.468 E11.81411
G1 X202.158 Y185.333 E11.82222
G1 X199.126 Y184.521 E11.86159
G1 X198.506 Y184.319 E11.86976
G1 X195.573 Y183.192 E11.90917
G1 X194.983 Y182.93 E11.91726
G1 X192.185 Y181.505 E11.95664
G1 X191.623 Y181.18 E11.96478
G1 X188.991 Y179.471 E12.00413
G1 X188.465 Y179.089 E12.01229
G1 X186.024 Y177.112 E12.05168
